X:227
T:Boatie Rows. Le4.227, The
L:1/8
B:L.Leadley MS#4 c1850
Z:vmp.Mike Hicken 2016 www.village-music-project.org.uk
N: Unable to read title
N: * This is shown as a quaver but has been changed to give the correct timimg.
Q:1/4=80
M:2/4
K:G
G|B<d d>e|dg (a/g/)(f/e/)|d<B {B}AG|(B2 {cB}A)>G|B<d d>e|dg (a/g/)(f/e/)|d<B A>B|G2 ||"*"d2|
gd (de/f/)|gd d>g|e>d eg|{f}a2 (g>f)|g<b e<g|d(g/f/) (e/d/c/B/)|A>G AB|G2 |]

